packages/sources/assets/src/assets/flag-na.svg

<svg width="28" height="20" viewBox="0 0 28 20" fill="none" xmlns="http://www.w3.org/2000/svg">
<rect width="28" height="20" rx="2" fill="white"/>
<mask id="mask0_503_2687" style="mask-type:alpha" maskUnits="userSpaceOnUse" x="0" y="0" width="28" height="20">
<rect width="28" height="20" rx="2" fill="white"/>
</mask>
<g mask="url(#mask0_503_2687)">
<path fill-rule="evenodd" clip-rule="evenodd" d="M0 13.3333L28 0H0V13.3333Z" fill="#0C4799"/>
<path fill-rule="evenodd" clip-rule="evenodd" d="M4.66667 6L3.64618 7.13035L3.72386 5.60948L2.20299 5.68716L3.33333 4.66667L2.20299 3.64618L3.72386 3.72386L3.64618 2.20299L4.66667 3.33333L5.68716 2.20299L5.60948 3.72386L7.13035 3.64618L6 4.66667L7.13035 5.68716L5.60948 5.60948L5.68716 7.13035L4.66667 6Z" fill="#FFD243"/>
<path fill-rule="evenodd" clip-rule="evenodd" d="M0 20H28V6.66667L0 20Z" fill="#1BAC55"/>
<path fill-rule="evenodd" clip-rule="evenodd" d="M3.08239 22.6667L30.1707 5.74002L24.9176 -2.6667L-2.17072 14.26L3.08239 22.6667Z" fill="white"/>
<path fill-rule="evenodd" clip-rule="evenodd" d="M-0.629192 23.0719L32.162 2.58172L28.6292 -3.07193L-4.16199 17.4183L-0.629192 23.0719Z" fill="#E52347"/>
</g>
</svg>

<svg width="28" height="20" fill="none" xmlns="http://www.w3.org/2000/svg"><rect width="28" height="20" rx="2" fill="#fff"/><mask id="a" style="mask-type:alpha" maskUnits="userSpaceOnUse" x="0" y="0" width="28" height="20"><rect width="28" height="20" rx="2" fill="#fff"/></mask><g mask="url(#a)" fill-rule="evenodd" clip-rule="evenodd"><path d="M0 13.333 28 0H0v13.333Z" fill="#0C4799"/><path d="m4.667 6-1.02 1.13.077-1.52-1.521.077 1.13-1.02-1.13-1.02 1.52.077-.077-1.521 1.02 1.13 1.021-1.13-.078 1.52 1.521-.077L6 4.666l1.13 1.021-1.52-.078.077 1.521L4.667 6Z" fill="#FFD243"/><path d="M0 20h28V6.667L0 20Z" fill="#1BAC55"/><path d="M3.082 22.667 30.171 5.74l-5.253-8.407L-2.171 14.26l5.253 8.407Z" fill="#fff"/><path d="m-.63 23.072 32.792-20.49-3.533-5.654-32.791 20.49 3.533 5.654Z" fill="#E52347"/></g></svg>
